src/app/assets/svg/headset.svg

<?xml version="1.0" encoding="UTF-8"?>
<svg width="49px" height="50px" viewBox="0 0 49 50" version="1.1" xmlns="http://www.w3.org/2000/svg" xmlns:xlink="http://www.w3.org/1999/xlink">
    <title>Page 1 Copy</title>
    <defs>
        <polygon id="path-1" points="0 -4.54747351e-13 49 -4.54747351e-13 49 50 0 50"></polygon>
    </defs>
    <g id="Page-1" stroke="none" stroke-width="1" fill="none" fill-rule="evenodd">
        <g id="Blue-Sky-Product-Page" transform="translate(-748.000000, -3617.000000)">
            <g id="Page-1-Copy" transform="translate(748.000000, 3617.000000)">
                <mask id="mask-2" fill="white">
                    <use xlink:href="#path-1"></use>
                </mask>
                <g id="Clip-2"></g>
                <path d="M0,23.4176535 C0.031121029,23.1296208 0.0546085981,22.8405383 0.0946842628,22.5538555 C0.403765992,20.3394311 1.27177847,18.4266123 2.99664682,16.9825497 C3.20010789,16.8121747 3.42947868,16.674345 3.63697667,16.5086194 C3.7120635,16.4486282 3.78751731,16.3596913 3.81342704,16.2692546 C4.24919484,14.7478783 4.83234714,13.2880679 5.56207655,11.8901235 C6.95290764,9.22569024 8.7753962,6.91932936 11.0538372,4.99098791 C13.2074271,3.16830591 15.6150497,1.82187889 18.2823568,0.965354833 C19.6730411,0.518870483 21.0963877,0.232862538 22.5488737,0.0944328925 C23.7802829,-0.0229248513 25.0118389,-0.0320735061 26.2430279,0.0735859578 C28.5450299,0.271181903 30.7563111,0.841997971 32.8730549,1.78963363 C34.8300832,2.66587979 36.6171936,3.81928519 38.2380561,5.24047622 C40.1818726,6.9449006 41.7868809,8.93705768 43.0654855,11.2037494 C43.97328,12.8129378 44.6796687,14.5101632 45.1933858,16.2918262 C45.2144513,16.3647155 45.2675919,16.4459286 45.3291,16.4861227 C46.9644953,17.5553904 47.9965538,19.0823159 48.5637052,20.9542657 C48.9698934,22.2949185 49.0798445,23.6687165 48.9458186,25.0647863 C48.7778825,26.8139041 48.227466,28.4122191 47.1618643,29.8074639 C46.712738,30.3955274 46.1849283,30.9008031 45.5834263,31.3241159 C45.5072385,31.377733 45.4625387,31.43195 45.4519693,31.5355848 C45.2815376,33.207389 44.9450782,34.8428235 44.4036163,36.4319148 C43.6037912,38.7794447 42.4326423,40.9101064 40.8157434,42.7731324 C39.713002,44.0438206 38.4752071,45.1546323 37.0091424,45.9756115 C36.6845002,46.1573848 36.3453984,46.319061 35.9984429,46.4498418 C35.8206714,46.516807 35.6108981,46.509833 35.4155108,46.5107329 C34.2597756,46.5157571 33.1040404,46.5129825 31.9483052,46.5135824 C31.8743194,46.5135824 31.8061321,46.49626 31.7650288,46.6053689 C31.3146547,47.8014431 30.4903878,48.6542177 29.3971149,49.2472305 C28.1993956,49.89686 26.9208645,50.1124533 25.5785499,49.9462777 C24.1538821,49.7698286 22.8960493,49.2161851 21.9181591,48.1256954 C20.7339452,46.8052896 20.3959444,45.2806137 21.0565323,43.5915621 C21.4613993,42.5563393 22.2065424,41.8054747 23.1392925,41.2501064 C24.3408284,40.5347116 25.6436545,40.280049 27.021861,40.409255 C28.2251586,40.5220384 29.3156424,40.9381523 30.2674761,41.7070142 C30.9387068,42.2491095 31.4485338,42.918686 31.7549732,43.7404152 C31.7896908,43.8335515 31.8340235,43.8687963 31.9340659,43.8684214 C33.0327704,43.8647469 34.1314748,43.8672216 35.2301792,43.8634721 C35.3040183,43.8632471 35.3830686,43.837301 35.4508156,43.8042308 C36.3392329,43.3706446 37.1011109,42.7534103 37.8119035,42.0698109 C40.1469348,39.824641 41.6293674,37.0736705 42.4132651,33.914235 C42.5223354,33.4744997 42.6074045,33.0285403 42.709135,32.5601591 C42.4471018,32.5912796 42.2084094,32.6250996 41.968616,32.6469214 C41.5063513,32.6889902 41.0461417,32.7016633 40.6184478,32.4683726 C39.9773839,32.118774 39.6292541,31.5743541 39.5818386,30.8322632 C39.5764805,30.7479006 39.5786825,30.6628631 39.5786825,30.5782006 C39.5786091,26.2469124 39.5786091,21.9157743 39.5786091,17.5844862 C39.5786091,16.4100838 39.9138941,15.9009837 41.010103,15.4453507 C40.7092419,14.8120688 40.4282719,14.1703882 40.1054646,13.5514292 C39.4191138,12.2350727 38.5923514,11.0142522 37.6191586,9.90089096 C35.0138,6.92022923 31.828592,4.93984543 27.9877873,4.10086879 C26.4387821,3.76251854 24.8728219,3.66015859 23.2926223,3.77691642 C19.9978301,4.02040562 17.0225423,5.15671354 14.3545012,7.13402279 C12.0221122,8.86259363 10.1969079,11.0466475 8.84791407,13.6447155 C8.54352985,14.2309043 8.27775333,14.838015 8.00654531,15.409431 C8.28024888,15.5744817 8.54132789,15.6958889 8.76056967,15.871813 C9.2004478,16.2246361 9.42108415,16.7045655 9.42123095,17.279506 C9.42247873,21.7695458 9.42284572,26.2596606 9.42130435,30.7497004 C9.42093736,31.8151437 8.59454192,32.6731675 7.54582196,32.6657436 C4.78485821,32.6462465 2.66965582,31.4419986 1.24696972,29.0138556 C0.603190133,27.9149672 0.247647056,26.7111692 0.0932896884,25.4435556 C0.05886572,25.1604722 0.0309008331,24.8766389 0,24.5931056 L0,23.4176535 Z" id="Fill-1" fill="#4273B9" mask="url(#mask-2)"></path>
            </g>
        </g>
    </g>
</svg>

<svg xmlns="http://www.w3.org/2000/svg" xmlns:xlink="http://www.w3.org/1999/xlink" width="49" height="50"><defs/><defs><path id="a" d="M0 0h49v50H0z"/></defs><g fill="none" fill-rule="evenodd"><mask id="b" fill="#fff"><use xlink:href="#a"/></mask><path fill="#4273B9" d="M0 23.418c.031-.288.055-.577.095-.864.309-2.215 1.177-4.127 2.902-5.571.203-.17.432-.309.64-.474a.522.522 0 00.176-.24 23.31 23.31 0 011.75-4.379c1.39-2.664 3.212-4.97 5.49-6.899a21.063 21.063 0 017.23-4.026 20.176 20.176 0 014.266-.87A20.44 20.44 0 0132.873 1.79a21.308 21.308 0 015.365 3.45 22.696 22.696 0 014.827 5.964 23.653 23.653 0 012.128 5.088.37.37 0 00.136.194c1.635 1.07 2.668 2.596 3.235 4.468.406 1.34.516 2.715.382 4.11-.168 1.75-.719 3.348-1.784 4.743a7.16 7.16 0 01-1.579 1.517c-.076.054-.12.108-.131.212a22.058 22.058 0 01-1.048 4.896c-.8 2.347-1.971 4.478-3.588 6.341-1.103 1.27-2.34 2.382-3.807 3.203a7.477 7.477 0 01-1.01.474c-.178.067-.388.06-.583.06-1.156.006-2.312.003-3.468.004-.074 0-.142-.018-.183.091-.45 1.196-1.275 2.05-2.368 2.642-1.198.65-2.476.865-3.818.7-1.425-.177-2.683-.73-3.66-1.821-1.185-1.32-1.523-2.845-.862-4.534.404-1.036 1.15-1.787 2.082-2.342 1.202-.715 2.505-.97 3.883-.84 1.203.112 2.294.528 3.245 1.297a4.69 4.69 0 011.488 2.033c.035.094.079.129.18.128 1.098-.003 2.196 0 3.295-.005a.529.529 0 00.22-.059c.89-.433 1.651-1.05 2.362-1.734 2.335-2.245 3.817-4.996 4.601-8.156.11-.44.194-.885.296-1.354-.262.031-.5.065-.74.087-.463.042-.923.055-1.35-.179-.642-.35-.99-.894-1.037-1.636-.006-.084-.003-.17-.003-.254V17.584c0-1.174.335-1.683 1.431-2.139-.3-.633-.582-1.275-.905-1.894a18.574 18.574 0 00-2.486-3.65c-2.605-2.98-5.79-4.961-9.631-5.8a16.27 16.27 0 00-4.695-.324c-3.295.243-6.27 1.38-8.938 3.357-2.333 1.729-4.158 3.913-5.507 6.51-.304.587-.57 1.194-.841 1.765.273.165.534.287.754.463.44.353.66.833.66 1.408.001 4.49.002 8.98 0 13.47 0 1.065-.826 1.923-1.875 1.916-2.761-.02-4.876-1.224-6.299-3.652-.644-1.099-1-2.303-1.154-3.57-.034-.284-.062-.567-.093-.85v-1.176z" mask="url(#b)"/></g></svg>
